assets/img/img-pages/fran/instruction.svg

<svg width="84" height="84" viewBox="0 0 84 84" fill="none" xmlns="http://www.w3.org/2000/svg">
<path fill-rule="evenodd" clip-rule="evenodd" d="M37.7711 15.8204H40.1229C45.7515 15.8204 50.3143 20.3832 50.3143 26.0118V27.329L49.5871 26.5458C47.8615 24.6875 45.3036 23.844 42.8112 24.3113C41.1333 24.6259 39.4005 24.4563 37.8155 23.8223L35.2051 22.7781C33.2569 21.9988 31.0302 22.4934 29.5951 24.0242L27.5797 26.1739V26.0118C27.5797 20.3832 32.1425 15.8204 37.7711 15.8204ZM47.8636 28.1461L50.3143 30.7853V31.4994H47.9625V30.7155V29.1476H46.3946H41.6908H40.1229V30.7155V31.4994H36.9871V30.7155V29.1476H35.4192H30.7155H29.1476V30.7155V31.4994H27.5797V30.7155V29.6126L31.3108 25.6327C32.0836 24.8085 33.2826 24.5421 34.3316 24.9617L36.942 26.0059C38.9417 26.8058 41.1278 27.0198 43.2446 26.6229C44.9436 26.3043 46.6874 26.8793 47.8636 28.1461ZM53.0582 34.6353H52.6662V30.7155H53.0582C54.1406 30.7155 55.018 31.593 55.018 32.6754C55.018 33.7578 54.1406 34.6353 53.0582 34.6353ZM52.6662 36.9871H52.5691C52.155 40.3084 50.4423 43.2264 47.9552 45.2172C48.5218 45.332 49.0795 45.4712 49.6272 45.6337C51.7927 41.8718 55.8534 39.339 60.5057 39.339C67.4332 39.339 73.049 44.9548 73.049 51.8822C73.049 57.7283 69.0496 62.6403 63.6376 64.0313C63.6402 64.1624 63.6415 64.2938 63.6415 64.4254V73.0489H13.4685V64.4254C13.4685 54.7169 20.5277 46.6571 29.7932 45.0989C27.3849 43.1117 25.7309 40.2432 25.3249 36.9871H25.2278H24.8359C22.4545 36.9871 20.5241 35.0567 20.5241 32.6754C20.5241 30.2941 22.4545 28.3636 24.8359 28.3636H25.2278V26.0118C25.2278 19.0843 30.8436 13.4685 37.7711 13.4685H40.1229C47.0504 13.4685 52.6662 19.0843 52.6662 26.0118V28.3636H53.0582C55.4395 28.3636 57.3699 30.2941 57.3699 32.6754C57.3699 35.0567 55.4395 36.9871 53.0582 36.9871H52.6662ZM61.2896 64.4014C61.0304 64.4174 60.769 64.4255 60.5057 64.4255C53.5783 64.4255 47.9625 58.8097 47.9625 51.8822C47.9625 51.6662 47.9679 51.4514 47.9787 51.238L44.7381 53.6145L43.9507 54.1919L43.2384 53.5241L41.821 52.1952L41.4434 54.7841L43.6246 64.9631L43.6818 65.2299L43.6156 65.4947L42.315 70.6971H61.2897V64.4254L61.2896 64.4014ZM34.0111 70.6971L32.7105 65.4947L32.6443 65.2299L32.7015 64.9631L34.8827 54.7841L34.5051 52.1952L33.0877 53.5241L32.3546 54.2113L31.5615 53.5944L25.534 48.9064C19.7836 51.7029 15.8204 57.6013 15.8204 64.4254V70.6971H34.0111ZM36.9858 56.194L35.0583 65.189L36.3374 70.3052H39.9888L41.2678 65.189L39.3403 56.194H36.9858ZM38.1631 48.7659L39.7301 50.235L39.2041 53.8421H37.1221L36.596 50.235L38.1631 48.7659ZM40.7294 47.9481L44.1347 51.1405L48.6256 47.8472L48.6422 47.7986C47.3132 47.4317 45.9199 47.22 44.4829 47.184C43.305 47.6207 42.0437 47.8855 40.7294 47.9481ZM33.3962 47.1785C34.1504 47.4591 34.9388 47.6693 35.7535 47.8011L32.2122 51.1211L28.0832 47.9096C29.6611 47.434 31.3344 47.1785 33.0674 47.1785H33.3962ZM50.3143 34.6353V35.4192C50.3143 41.0478 45.7515 45.6106 40.1229 45.6106H37.7711C32.1425 45.6106 27.5797 41.0478 27.5797 35.4192V34.6353V33.0674H29.1476V33.8513V35.4192H30.7155H35.4192H36.9871V33.8513V33.0674H40.1229V33.8513V35.4192H41.6908H46.3946H47.9625V33.8513V33.0674H50.3143V34.6353ZM25.2278 30.7155H24.8359C23.7534 30.7155 22.876 31.593 22.876 32.6754C22.876 33.7578 23.7534 34.6353 24.8359 34.6353H25.2278V30.7155ZM30.7155 30.7155H35.4192V33.8513H30.7155V30.7155ZM46.3946 30.7155H41.6908V33.8513H46.3946V30.7155ZM35.4192 40.9069H41.6908V42.4748H35.4192V40.9069ZM70.6971 51.8822C70.6971 57.5108 66.1343 62.0736 60.5057 62.0736C54.8772 62.0736 50.3143 57.5108 50.3143 51.8822C50.3143 46.2537 54.8772 41.6908 60.5057 41.6908C66.1343 41.6908 70.6971 46.2537 70.6971 51.8822ZM61.6816 51.0983V57.3699H59.3298V51.0983H61.6816ZM61.6816 48.3545C61.6816 47.705 61.1552 47.1785 60.5057 47.1785C59.8563 47.1785 59.3298 47.705 59.3298 48.3545C59.3298 49.0039 59.8563 49.5304 60.5057 49.5304C61.1552 49.5304 61.6816 49.0039 61.6816 48.3545Z" fill="#1D3557"/>
</svg>

<svg width="84" height="84" fill="none" xmlns="http://www.w3.org/2000/svg"><path fill-rule="evenodd" clip-rule="evenodd" d="M37.771 15.82h2.352c5.629 0 10.191 4.563 10.191 10.192v1.317l-.727-.783a7.389 7.389 0 0 0-6.776-2.235 8.99 8.99 0 0 1-4.995-.489l-2.61-1.044a5.096 5.096 0 0 0-5.61 1.246l-2.016 2.15v-.162c0-5.629 4.563-10.192 10.191-10.192Zm10.093 12.326 2.45 2.64v.713h-2.352v-2.351h-7.839v2.351h-3.136v-2.351h-7.839v2.351H27.58V29.613l3.73-3.98a2.744 2.744 0 0 1 3.022-.671l2.61 1.044c2 .8 4.186 1.014 6.303.617a5.036 5.036 0 0 1 4.619 1.523Zm5.194 6.49h-.392v-3.92h.392a1.96 1.96 0 0 1 0 3.92Zm-.392 2.351h-.097a12.528 12.528 0 0 1-4.614 8.23 19.47 19.47 0 0 1 1.672.417 12.538 12.538 0 0 1 10.879-6.295c6.927 0 12.543 5.616 12.543 12.543 0 5.846-4 10.758-9.411 12.15.002.13.004.262.004.393v8.624H13.468v-8.624c0-9.708 7.06-17.768 16.325-19.326a12.525 12.525 0 0 1-4.468-8.112h-.489a4.312 4.312 0 1 1 0-8.623h.392v-2.352c0-6.928 5.616-12.543 12.543-12.543h2.352c6.927 0 12.543 5.615 12.543 12.543v2.352h.392a4.312 4.312 0 0 1 0 8.623h-.392Zm8.624 27.414c-.26.016-.521.025-.784.025-6.928 0-12.544-5.616-12.544-12.544 0-.216.006-.43.017-.644l-3.24 2.377-.788.577-.713-.668-1.417-1.329-.378 2.59 2.182 10.178.057.267-.066.265-1.301 5.202H61.29v-6.296ZM34.01 70.697l-1.3-5.202-.067-.265.058-.267 2.18-10.179-.377-2.589-1.417 1.33-.733.686-.793-.617-6.028-4.688c-5.75 2.797-9.714 8.695-9.714 15.52v6.271h18.191Zm2.975-14.503-1.928 8.995 1.28 5.116h3.65l1.28-5.116-1.928-8.995h-2.354Zm1.177-7.428 1.567 1.469-.526 3.607h-2.082l-.526-3.607 1.567-1.47Zm2.566-.818 3.406 3.193 4.49-3.294.017-.048a17.235 17.235 0 0 0-4.16-.615c-1.177.437-2.438.702-3.753.764Zm-7.333-.77c.754.281 1.543.491 2.358.623l-3.542 3.32-4.129-3.211a17.245 17.245 0 0 1 4.984-.731h.33Zm16.918-12.543v.784c0 5.629-4.563 10.192-10.191 10.192H37.77c-5.629 0-10.191-4.563-10.191-10.192V33.067h1.568V35.42h7.839V33.067h3.136V35.42h7.839V33.067h2.352v1.568Zm-25.086-3.92h-.392a1.96 1.96 0 1 0 0 3.92h.392v-3.92Zm5.487 0h4.704v3.136h-4.703v-3.136Zm15.68 0H41.69v3.136h4.704v-3.136ZM35.419 40.907h6.272v1.568h-6.272v-1.568Zm35.278 10.975c0 5.629-4.563 10.192-10.191 10.192-5.629 0-10.192-4.563-10.192-10.192 0-5.628 4.563-10.191 10.192-10.191 5.628 0 10.191 4.563 10.191 10.191Zm-9.015-.784v6.272H59.33v-6.272h2.352Zm0-2.743a1.176 1.176 0 1 0-2.352 0 1.176 1.176 0 0 0 2.352 0Z" fill="#1D3557"/></svg>
